X: 635
T:Beauty in Tears
M:3/4
L:1/8
B:O'Neill's 635
N:"Moderate."
Z:Transcribed by Ted Hastings, ted@hastings.nu
K:D
A2|(d2 f2 a2)|(f2 d2 B2)|(efgfed)|(fedcBA)|
d2 (fdec)|d2 B2 G2|A2 B2 c2|d6:|
(d2 f2 a2)|(d'2 a2 f2)|(edefga)|(b2 g2 e2)|
(dcdefg)|a2 (gfed)|(e2 a2 ^f2)|(a4 f2)|
(f2 d2 B2)|(B2 c2 d2)|(efgfed)|(fedcBA)|
d2 (fdec)|d2 B2 G2|A2 B2 c2|d4||


